X:033
T: Rose Tree in Full Bearing (The)
N: O'Farrell's Pocket Companion v.1 (Sky ed. p.31)
% I have slowed down Parts 3 and 4 to make the sixteenth notes easier to hear.
% This is the same melody as the polka "Port Lairge".
M: C
L: 1/8
Q: 240
R: march
K: D
f/e/|d>B AF A2 A>B|d2 ed/e/ fee>f|dBAF A2 A>B|
d2 ed/e/ fdd :|
P:2
e| fefg a2 gf|ebba be ef/e/|dBAF A2 A>B|
d2 ed/e/ fdd :|
P:3 variations
[Q: 180]
f/e/|d>B A/F/d/F/ A/F/d/F/ A>B|D/F/A/d/ f/e/d/e/ fee>f|
d>B A/F/d/F/ A/F/d/F/ A>B|d/A/e/d/ f/e/d/e/ fdd :|
P:4
e|f/g/f/e/ d/e/f/g/ a/d/f/d/ f/a/g/f/|g>a b/a/g/f/ be ef/e/|
dBAG/F/ A/F/d/F/ A>B| D/F/A/d/ f/e/d/e/ fdd :|
